icon-svg/vtm-alt.svg

<svg xmlns="http://www.w3.org/2000/svg" fill="#44739e" viewBox="0 0 24 24"><path d="M21.893 6.22c-.486-2.24-3.252-2.125-4.2-.733a2.462 2.462 0 0 0-3.607-.42v-.626h-2.024V8.22H11.4a.9.9 0 0 1-.98-.864 2.1 2.1 0 0 1-.016-.231v-.708h1.037V4.449H10.4V2.473L9.361 4.449h-2.38l-1.1 2.256-.354.725-.327-.815-.829-2.166H2l.848 1.82 1.828 3.944h1.77L8.1 7.026l.256-.485v.815a2.628 2.628 0 0 0 2.774 2.857h2.948V7.381c0-1 1.8-1.326 1.8-.2v3.022H18.1V7.381c0-.98 1.63-1.31 1.7-.272v3.1H22v-3a4.53 4.53 0 0 0-.107-1"/></svg>

<?xml version="1.0" encoding="UTF-8"?>
<svg width="24px" fill="#44739e" height="24px" viewBox="0 0 24 24" version="1.1" xmlns="http://www.w3.org/2000/svg" xmlns:xlink="http://www.w3.org/1999/xlink">
            <path d="M 21.893,6.22 C 21.407,3.98 18.641,4.095 17.693,5.487 A 2.462,2.462 0 0 0 14.086,5.067 V 4.441 H 12.062 V 8.22 H 11.4 A 0.9,0.9 0 0 1 10.42,7.356 2.078,2.078 0 0 1 10.404,7.125 V 6.417 h 1.037 V 4.449 H 10.4 V 2.473 L 9.361,4.449 H 6.981 L 5.881,6.705 5.527,7.43 5.2,6.615 4.371,4.449 H 2 l 0.848,1.82 1.828,3.944 h 1.77 L 8.1,7.026 8.356,6.541 v 0.815 a 2.628,2.628 0 0 0 2.774,2.857 h 2.948 V 7.381 c 0,-1 1.8,-1.326 1.8,-0.2 v 3.022 H 18.1 V 7.381 c 0,-0.98 1.63,-1.31 1.7,-0.272 v 3.1 H 22 v -3 a 4.529,4.529 0 0 0 -0.107,-1"/>

</svg>
